X: 38702
T: Strawberry Field, The
R: reel
M: 4/4
K: Amajor
|:EEcE BEAE|E/E/E cE BEAE|d2 d/d/d eBBd|cBBc cBAF|
E/E/E cE BEAE|E/E/E cE BEAE|d2 d/d/d eBBd|1 cBBc A2 AF:|2 cBBc A2 cd||
|:eE E/E/E FEDF|EFAc B2 AE|FB B/B/B cBAE|FBBc B2 cd|
eE E/E/E FEDF|EFAc B/c/B AE|Fd d/d/d eB B/B/B|1 cBBc A2 cd:|2 cBBc A3 z||

